flaticon/hand-gestures/tap-1.svg

<svg xmlns="http://www.w3.org/2000/svg" width="32" height="32" viewBox="0 0 24 24">
    <path d="M 13.238281 8.800781 C 13.480469 8.800781 13.640625 8.640625 13.640625 8.398438 L 13.640625 6.808594 L 16.238281 4.679688 C 16.398438 4.558594 16.398438 4.28125 16.28125 4.121094 C 16.160156 3.960938 15.878906 3.921875 15.71875 4.078125 L 13.640625 5.78125 L 13.640625 4.398438 C 13.640625 3.28125 12.761719 2.398438 11.640625 2.398438 C 10.519531 2.398438 9.640625 3.28125 9.640625 4.398438 L 9.640625 8.398438 C 9.640625 8.601562 9.671875 8.796875 9.726562 8.984375 L 8.859375 9.691406 C 8.820312 9.535156 8.800781 9.371094 8.800781 9.199219 L 8.800781 7.601562 C 8.800781 7.359375 8.640625 7.199219 8.398438 7.199219 C 8.160156 7.199219 8 7.359375 8 7.601562 L 8 9.199219 C 8 9.566406 8.070312 9.917969 8.195312 10.238281 L 6.921875 11.28125 C 6.761719 11.398438 6.761719 11.679688 6.878906 11.839844 C 6.960938 11.960938 7.082031 12 7.199219 12 C 7.28125 12 7.359375 11.960938 7.441406 11.878906 L 8.59375 10.933594 C 9.105469 11.585938 9.898438 12 10.800781 12 C 11.039062 12 11.199219 11.839844 11.199219 11.601562 C 11.199219 11.359375 11.039062 11.199219 10.800781 11.199219 C 10.148438 11.199219 9.574219 10.902344 9.214844 10.429688 L 10.105469 9.699219 C 10.371094 10.03125 10.738281 10.285156 11.160156 10.398438 C 11.160156 10.398438 11.199219 10.398438 11.238281 10.398438 C 11.398438 10.398438 11.558594 10.28125 11.640625 10.078125 C 11.71875 9.878906 11.558594 9.640625 11.359375 9.601562 C 11.109375 9.542969 10.890625 9.394531 10.726562 9.191406 L 12.839844 7.460938 L 12.839844 8.398438 C 12.839844 8.640625 13 8.800781 13.238281 8.800781 Z M 10.441406 8.398438 L 10.441406 4.398438 C 10.441406 3.71875 10.960938 3.199219 11.640625 3.199219 C 12.320312 3.199219 12.839844 3.71875 12.839844 4.398438 L 12.839844 6.4375 Z M 10.441406 8.398438"/>
    <path d="M 9.199219 16.800781 L 2.238281 16.800781 C 1.558594 16.800781 0.800781 16.320312 0.800781 15.601562 L 0.800781 2.199219 C 0.800781 1.480469 1.519531 0.800781 2.238281 0.800781 L 21.800781 0.800781 C 22.519531 0.800781 23.199219 1.480469 23.199219 2.199219 L 23.199219 13.601562 C 23.199219 13.839844 23.359375 14 23.601562 14 C 23.839844 14 24 13.839844 24 13.601562 L 24 2.199219 C 24 1.039062 22.960938 0 21.800781 0 L 2.238281 0 C 1.078125 0 0 1.039062 0 2.199219 L 0 15.601562 C 0 16.839844 1.160156 17.601562 2.238281 17.601562 L 9.199219 17.601562 C 9.441406 17.601562 9.601562 17.441406 9.601562 17.199219 C 9.601562 16.960938 9.441406 16.800781 9.199219 16.800781 Z M 9.199219 16.800781"/>
    <path d="M 23.878906 16.121094 L 19.441406 11.519531 C 18.441406 10.558594 17.121094 10 15.761719 10 C 14.398438 10 13.039062 10.519531 12.078125 11.519531 C 11.121094 12.519531 10.558594 13.800781 10.558594 15.199219 C 10.558594 16.601562 11.078125 17.878906 12.078125 18.878906 L 17.320312 23.878906 C 17.398438 23.960938 17.519531 24 17.601562 24 C 17.71875 24 17.800781 23.960938 17.839844 23.878906 C 18 23.71875 18 23.480469 17.839844 23.320312 L 12.640625 18.320312 C 11.800781 17.480469 11.359375 16.398438 11.359375 15.199219 C 11.359375 14 11.800781 12.921875 12.640625 12.078125 C 13.480469 11.238281 14.558594 10.800781 15.761719 10.800781 C 16.960938 10.800781 18.039062 11.238281 18.878906 12.078125 L 23.320312 16.679688 C 23.480469 16.839844 23.71875 16.839844 23.878906 16.679688 C 24.039062 16.519531 24.039062 16.28125 23.878906 16.121094 Z M 23.878906 16.121094"/>
    <path d="M 18.28125 12.640625 C 16.878906 11.238281 14.601562 11.238281 13.199219 12.640625 C 11.800781 14.039062 11.800781 16.320312 13.199219 17.71875 L 14.878906 19.398438 C 15.160156 19.640625 15.480469 19.800781 15.839844 19.800781 C 15.878906 19.800781 15.921875 19.800781 15.921875 19.800781 C 18.28125 19.640625 20.199219 17.71875 20.359375 15.359375 C 20.359375 14.960938 20.238281 14.601562 19.960938 14.320312 Z M 13.800781 17.199219 C 12.679688 16.078125 12.679688 14.320312 13.800781 13.199219 C 14.878906 12.121094 16.679688 12.121094 17.761719 13.199219 L 19.371094 14.851562 C 19.195312 14.9375 18.996094 15.019531 18.800781 15.121094 C 18.160156 15.441406 17.441406 15.761719 16.878906 16.320312 C 16.320312 16.921875 15.921875 17.679688 15.601562 18.359375 C 15.542969 18.511719 15.476562 18.664062 15.40625 18.804688 Z M 16.15625 19.015625 C 16.203125 18.917969 16.242188 18.820312 16.28125 18.71875 C 16.601562 18.039062 16.960938 17.359375 17.441406 16.878906 C 17.921875 16.398438 18.519531 16.121094 19.121094 15.839844 C 19.269531 15.785156 19.421875 15.71875 19.570312 15.644531 C 19.332031 17.394531 17.914062 18.800781 16.15625 19.015625 Z M 16.15625 19.015625"/>
</svg>

<svg xmlns="http://www.w3.org/2000/svg" width="32" height="32" viewBox="0 0 24 24">
    <path d="M13.238 8.8c.242 0 .403-.16.403-.402v-1.59l2.597-2.128c.16-.121.16-.399.043-.559-.12-.16-.402-.2-.562-.043L13.64 5.781V4.398c0-1.117-.88-2-2-2-1.121 0-2 .883-2 2v4c0 .204.03.399.086.586l-.868.707a2.022 2.022 0 0 1-.058-.492V7.602c0-.243-.16-.403-.403-.403-.238 0-.398.16-.398.403v1.597c0 .367.07.719.195 1.04L6.922 11.28c-.16.117-.16.399-.043.559.082.12.203.16.32.16.082 0 .16-.04.242-.121l1.153-.945A2.785 2.785 0 0 0 10.8 12c.238 0 .398-.16.398-.398 0-.243-.16-.403-.398-.403a1.975 1.975 0 0 1-1.586-.77l.89-.73c.266.332.633.586 1.055.7h.078c.16 0 .32-.118.403-.32.078-.2-.082-.438-.282-.477a1.16 1.16 0 0 1-.632-.41L12.84 7.46v.937c0 .243.16.403.398.403zm-2.797-.402v-4c0-.68.52-1.199 1.2-1.199.68 0 1.199.52 1.199 1.2v2.038zm0 0"/>
    <path d="M9.2 16.8H2.237c-.68 0-1.437-.48-1.437-1.198V2.199C.8 1.48 1.52.801 2.238.801h19.563c.719 0 1.398.68 1.398 1.398v11.403c0 .238.16.398.403.398.238 0 .398-.16.398-.398V2.199C24 1.04 22.96 0 21.8 0H2.239C1.078 0 0 1.04 0 2.2v13.402c0 1.238 1.16 2 2.238 2H9.2c.242 0 .403-.16.403-.403 0-.238-.16-.398-.403-.398zm0 0"/>
    <path d="M23.879 16.121L19.44 11.52c-1-.961-2.32-1.52-3.68-1.52-1.363 0-2.722.52-3.683 1.52-.957 1-1.52 2.28-1.52 3.68 0 1.402.52 2.679 1.52 3.679l5.242 5c.078.082.2.121.282.121.117 0 .199-.04.238-.121a.385.385 0 0 0 0-.559l-5.2-5a4.325 4.325 0 0 1-1.28-3.12c0-1.2.44-2.278 1.28-3.122.84-.84 1.919-1.277 3.122-1.277 1.199 0 2.277.437 3.117 1.277l4.441 4.602c.16.16.399.16.559 0a.385.385 0 0 0 0-.559zm0 0"/>
    <path d="M18.281 12.64a3.595 3.595 0 0 0-5.082 0 3.598 3.598 0 0 0 0 5.079l1.68 1.68c.281.242.601.402.96.402h.083c2.36-.16 4.277-2.082 4.437-4.442 0-.398-.12-.757-.398-1.039zm-4.48 4.56a2.799 2.799 0 0 1 0-4c1.078-1.079 2.879-1.079 3.96 0l1.61 1.652c-.176.085-.375.168-.57.27-.64.32-1.36.64-1.922 1.198-.559.602-.957 1.36-1.277 2.04a5.108 5.108 0 0 1-.196.445zm2.355 1.816a3.97 3.97 0 0 0 .125-.297c.32-.68.68-1.36 1.16-1.84.48-.48 1.079-.758 1.68-1.04.149-.054.3-.12.45-.194a3.957 3.957 0 0 1-3.415 3.37zm0 0"/>
</svg>
